X:1
N: Invercauld's Reel
N: 8x32S
P: Invercauld's Reel
C: RSCDS Book 11, from Stewart's Collection 1762
C: arr. T. Traub 8-4-03
L: 1/8
M: 4/4
K: Dm
|: A |"Dm"D<D E>F "Am"A>G E<G|"Dm"D<D "G"E>G "C"c3 e|"G"d>B g>B "Em"A>G E<G|"Dm"D<D "Em"E>G "Am"A2 A :|
B|"Am"c>A "Em"B>G "Am"A>G E<G|"Am"c>B c>d "C"e>f g<e|"G"d>B g>B "Em"A>G E<G|"Dm"D<D "Em"E>G "Am"A2 AB|
"C"c>d "G"B<g "Em"A>G EB c>d "C"e>f g<e|"G"d>g B<g "Em"A>G E<G|"Dm"D<D "Em"E>G "Am"A2 A |]
